resources/svg/message-plus-o.svg

<svg xmlns="http://www.w3.org/2000/svg" viewBox="0 0 15 15" fill="none"><path d="M5.5 11.4928L5.91594 11.2154C5.8232 11.0763 5.66712 10.9928 5.5 10.9928V11.4928ZM7.5 14.4909L7.08406 14.7683C7.1768 14.9074 7.33288 14.9909 7.5 14.9909C7.66712 14.9909 7.8232 14.9074 7.91594 14.7683L7.5 14.4909ZM9.5 11.4928V10.9928C9.33288 10.9928 9.1768 11.0763 9.08406 11.2154L9.5 11.4928ZM5.08406 11.7703L7.08406 14.7683L7.91594 14.2134L5.91594 11.2154L5.08406 11.7703ZM7.91594 14.7683L9.91594 11.7703L9.08406 11.2154L7.08406 14.2134L7.91594 14.7683ZM9.5 11.9928H13.5V10.9928H9.5V11.9928ZM13.5 11.9928C14.3288 11.9928 15 11.3226 15 10.4935H14C14 10.7697 13.7772 10.9928 13.5 10.9928V11.9928ZM15 10.4935V1.49935H14V10.4935H15ZM15 1.49935C15 0.670259 14.3288 0 13.5 0V1C13.7772 1 14 1.22316 14 1.49935H15ZM13.5 0H1.5V1H13.5V0ZM1.5 0C0.671165 0 0 0.670259 0 1.49935H1C1 1.22316 1.22283 1 1.5 1V0ZM0 1.49935V10.4935H1V1.49935H0ZM0 10.4935C0 11.3226 0.671165 11.9928 1.5 11.9928V10.9928C1.22284 10.9928 1 10.7697 1 10.4935H0ZM1.5 11.9928H5.5V10.9928H1.5V11.9928ZM7 4V9H8V4H7ZM5 7H10V6H5V7Z" fill="black"/></svg>

<svg xmlns="http://www.w3.org/2000/svg" viewBox="0 0 15 15" fill="none"><path d="M5.5 11.493l.416-.278a.5.5 0 00-.416-.222v.5zm2 2.998l-.416.277a.5.5 0 00.832 0l-.416-.277zm2-2.998v-.5a.5.5 0 00-.416.222l.416.278zm-4.416.277l2 2.998.832-.555-2-2.998-.832.555zm2.832 2.998l2-2.998-.832-.555-2 2.998.832.555zM9.5 11.993h4v-1h-4v1zm4 0c.829 0 1.5-.67 1.5-1.5h-1c0 .277-.223.5-.5.5v1zm1.5-1.5V1.5h-1v8.994h1zM15 1.5c0-.83-.671-1.5-1.5-1.5v1c.277 0 .5.223.5.5h1zM13.5 0h-12v1h12V0zm-12 0C.671 0 0 .67 0 1.5h1c0-.277.223-.5.5-.5V0zM0 1.5v8.993h1V1.5H0zm0 8.993c0 .83.671 1.5 1.5 1.5v-1a.499.499 0 01-.5-.5H0zm1.5 1.5h4v-1h-4v1zM7 4v5h1V4H7zM5 7h5V6H5v1z" fill="currentColor"/></svg>
